!!!!SEGMENT: pl-kk--kk-i-10--015_anonim--crudelis-herodes.krn
!!!cenid: 16xx:1207
!!!COM: Anonim
!!!COM-rismid: pe30004985
!!!CDT:
!!!CNT:
!!!OTL: Crudelis Herodes
!!!PDT:
!!!AGN: Sacred
!!!SMS-siglum: PL-Kk
!!!SMS-shelfmark: Kk.I.10
!!!SMS-shelfwork: 015 W
!!!SMS-variant:
!!!SMS-altvar:
!!!NIFC-rismid: 1001153948
!!!URL-scan: http://repozytorium.nifc.pl/skany/pl-kk-nut--i-10
!!!ONB-nifc: UWAGA: A (skan 0026-0027), T (0075), B (0125-0126). Następny utwór: Missa
!!!key:
**kern	**text	**kern	**text	**kern	**text
*part3	*part3	*part2	*part2	*part1	*part1
*staff3	*staff3	*staff2	*staff2	*staff1	*staff1
*Ibass	*	*Itenor	*	*Ialto	*
*I"Basso	*	*I"2do Tenore	*	*I"Alto	*
*I'B	*	*I'T	*	*I'A	*
*clefF4	*	*clefC4	*	*clefC3	*
*k[b-]	*	*k[b-]	*	*k[b-]	*
*g:	*	*g:	*	*g:	*
*M3/1	*	*M3/1	*	*M3/1	*
*all\right	*	*all\right	*	*all\right	*
=1-	=1-	=1-	=1-	=1-	=1-
1r	.	1r	.	1r	.
1r	.	1r	.	1r	.
!LO:TX:t=P:problem:kreska pseudotaktowa	!	!LO:TX:t=P:problem:kreska pseudotaktowa	!	!LO:TX:t=P:problem:kreska pseudotaktowa	!
1G	Cru-	1B-	Cru-	1g	Cru-
=2-	=2-	=2-	=2-	=2-	=2-
1G	-de-	1B-	-de-	1g	-de-
1G	-lis	1B-	-lis	1d	-lis
!LO:TX:t=P:problem:kreska pseudotaktowa	!	!LO:TX:t=P:problem:kreska pseudotaktowa	!	!LO:TX:t=P:problem:kreska pseudotaktowa	!
1F#X	He-	1A	He-	1f#X	He-
=3-	=3-	=3-	=3-	=3-	=3-
1G	-ro-	1G	-ro-	1d	-ro-
1G	-des	1G	-des	1B-	-des
*	*	*	*ij	*	*
!LO:TX:t=P:problem:kreska pseudotaktowa	!	!LO:TX:t=P:problem:kreska pseudotaktowa	!	!LO:TX:t=P:problem:kreska pseudotaktowa	!
1G	He-	1G	He-	1d	He-
=4-	=4-	=4-	=4-	=4-	=4-
1Fn	-ro-	1A	-ro-	1d	-ro-
1.E-X	-des	1.B-	-des	1.d	-des
*	*	*	*Xij	*	*
*2\right	*	*2\right	*	*2\right	*
!LO:TX:t=P:problem:kreska pseudotaktowa	!	!	!	!	!
!	!	!	!	!LO:TX:t=P:problem:kreska pseudotaktowa	!
2E-\	De-	2c\	De-	2c\	De-
=5-	=5-	=5-	=5-	=5-	=5-
!LO:TX:t=P:problem:kreska pseudotaktowa	!	!LO:TX:t=P:problem:kreska pseudotaktowa	!	!LO:TX:t=P:problem:kreska pseudotaktowa	!
0.D	-um	0.A	-um	0.d	-um
=6-	=6-	=6-	=6-	=6-	=6-
1D	Re-	1d	Re-	1f#X	Re-
1G	-gem	1d	-gem	1g	-gem
!LO:TX:t=P:problem:kreska pseudotaktowa	!	!	!	!	!
!	!	!	!	!LO:TX:t=P:problem:kreska pseudotaktowa	!
1F	Ve-	1A	ve-	1a	Ve-
=7-	=7-	=7-	=7-	=7-	=7-
!	!	!	!	!LO:N:acc=#	!
0B-	-ni-	0B-	-ni-	0fnX	-ni-
!LO:SIC:v:t=custos G	!	!	!	!	!
!LO:TX:t=P:problem:kreska pseudotaktowa	!	!LO:TX:t=P:problem:kreska pseudotaktowa	!	!LO:TX:t=P:problem:kreska pseudotaktowa	!
1A	-re	1c	-re	1f	-re
=8-	=8-	=8-	=8-	=8-	=8-
!LO:LB:g=original	!	!	!	!	!
1.G	quid	1.d	quid	1.fny	quid
*	*ij	*	*	*	*
1G	quid	2c\	.	1e	q(ui)d
*	*Xij	*	*	*	*
.	.	2B-\	.	.	.
!LO:TX:t=P:problem:kreska pseudotaktowa	!	!	!	!LO:TX:t=P:problem:kreska pseudotaktowa	!
2G\	ti-	2B-\	ti-	2f\	ti-
=9-	=9-	=9-	=9-	=9-	=9-
!LO:TX:t=P:problem:kreska pseudotaktowa	!	!LO:TX:t=P:problem:kreska pseudotaktowa	!	!LO:TX:t=P:problem:kreska pseudotaktowa	!
!	!	!LO:LB:g=original	!	!LO:LB:g=original	!
0.F	-mes	0.A	-mes	0.f	-mes
=10-	=10-	=10-	=10-	=10-	=10-
1F	non	1A	non	1a	non
!LO:N:acc=#	!	!	!	!	!
1.EnX	e-	1.c	e-	1.g	e-
!LO:TX:t=P:problem:kreska pseudotaktowa	!	!	!	!	!
2E\	-ri-	2c\	-ri-	2g\	-ri-
=11-	=11-	=11-	=11-	=11-	=11-
1.F	-pit	0c	-pit	0f	-pit
2E\	.	.	.	.	.
!LO:TX:t=P:problem:kreska pseudotaktowa	!	!LO:TX:t=P:problem:kreska pseudotaktowa	!	!LO:TX:t=P:problem:kreska pseudotaktowa	!
1D	mor-	1d	mor-	1f	mor-
=12-	=12-	=12-	=12-	=12-	=12-
1BB-	-ta-	1d	-ta-	0f	-ta-
1.C	-li-	1.c	-li-	.	.
.	.	.	.	1e	-li-
!LO:TX:t=P:problem:kreska pseudotaktowa	!	!LO:TX:t=P:problem:kreska pseudotaktowa	!	!	!
2C/	.	2B-\	.	.	.
=13-	=13-	=13-	=13-	=13-	=13-
0F	-a	0A	-a	0f,<	-a
!LO:TX:t=P:problem:kreska pseudotaktowa	!	!LO:TX:t=P:problem:kreska pseudotaktowa	!	!LO:TX:t=P:problem:kreska pseudotaktowa	!
1F	qui	1A	qui	1f	qui
=14-	=14-	=14-	=14-	=14-	=14-
1.F	re-	1.A	Re-	1.f	reg-
2F\	-gna	2B-\	-gna	2f\	-na
!LO:TX:t=P:problem:kreska pseudotaktowa	!	!LO:TX:t=P:problem:kreska pseudotaktowa	!	!LO:TX:t=P:problem:kreska pseudotaktowa	!
1E	dat	1c#X	dat	1g	dat
=15-	=15-	=15-	=15-	=15-	=15-
1D	cae-	1d	cae-	1a	cae-
1.A	-le-	1.d	-le-	1.a	-le-
!	!	!LO:TX:t=P:problem:kreska pseudotaktowa	!	!LO:TX:t=P:problem:kreska pseudotaktowa	!
2AA/	-sti-	2c#X\	-sti-	2e\	-sti-
=16-	=16-	=16-	=16-	=16-	=16-
!LO:LB:g=original	!	!	!	!	!
0D	-a	0d	-a	0f#X	-a
!LO:TX:t=P:problem:kreska pseudotaktowa	!	!LO:TX:t=P:problem:kreska pseudotaktowa	!	!LO:TX:t=P:problem:kreska pseudotaktowa	!
1G	qui	1B-	qui	1g	qui
=17-	=17-	=17-	=17-	=17-	=17-
1.D	re-	1.A	Re-	1.a	reg-
2D/	-gna	2B-\	-gna	2g\	-na
!LO:TX:t=P:problem:kreska pseudotaktowa	!	!	!	!LO:TX:t=P:problem:kreska pseudotaktowa	!
1C	dat	1cny	dat	1e	dat
=18-	=18-	=18-	=18-	=18-	=18-
!	!	!LO:LB:g=original	!	!LO:LB:g=original	!
1BB-	cae-	1d	cae-	1g	cae-
1.D	-leſ-	1.d	-les-	1.g	-leſ-
!	!	!	!	!LO:TX:t=P:problem:kreska pseudotaktowa	!
2D/	-ti-	2c\	-ti-	2f#X\	-ti-
=19-	=19-	=19-	=19-	=19-	=19-
!	!	!LO:TX:t=P:problem:fragment zapisany na karcie obok	!	!	!
!	!	!LO:TX:t=Ibant Magi	!	!	!
!LO:TX:t=P:problem:kreska pseudotaktowa	!	!LO:TX:a:t=Vide in alia parte	!	!	!
!	!	!LO:TX:t=P:problem:kreska pseudotaktowa	!	!LO:TX:t=P:problem:kreska pseudotaktowa	!
!	!	!LO:N:acc=#	!	!	!
0.GG;<	-a	0.Bn;;	-a	0.g;<	-a
=20||-	=20||-	=20||-	=20||-	=20||-	=20||-
!LO:TX:a:t=1.	!	!	!	!	!
!LO:TX:t=P:problem:kreska pseudotaktowa	!	!LO:PB:g=original	!	!	!
0.r	.	1r	.	00.r	.
!	!	!LO:TX:a:t=de	!	!	!
.	.	2G/	I-	.	.
.	.	2A/	.	.	.
.	.	2B-/	.	.	.
!	!	!LO:TX:t=P:problem:kreska pseudotaktowa	!	!	!
.	.	2G/	.	.	.
=21-	=21-	=21-	=21-	=21-	=21-
1r	.	1d	.	.	.
2D\	I-	1A	-bant	.	.
2E\	.	.	.	.	.
2F\	.	2d\	i-	.	.
!LO:TX:t=P:problem:kreska pseudotaktowa	!	!LO:TX:t=P:problem:kreska pseudotaktowa	!	!	!
2D\	.	2c\	-bant	.	.
=22-	=22-	=22-	=22-	=22-	=22-
1G	.	1B-	Ma-	0.r	.
1D	-bant,	1B-,<	-gi	.	.
!	!	!LO:TX:t=P:problem:kreska pseudotaktowa	!	!	!
2G\	i-	1B-	quam	.	.
!LO:TX:t=P:problem:kreska pseudotaktowa	!	!	!	!	!
2G\	-bant,	.	.	.	.
=23-	=23-	=23-	=23-	=23-	=23-
1F	ma-	0A	vi-	1r	.
1F	-gi	.	.	2d\	I-
.	.	.	.	2e\	.
!LO:SIC:v:t=custos E-	!	!	!	!	!
!	!	!LO:TX:t=P:problem:kreska pseudotaktowa	!	!	!
1F	quam	1A	-de-	2fny\	.
!	!	!	!	!LO:TX:t=P:problem:kreska pseudotaktowa	!
.	.	.	.	2d\	.
=24-	=24-	=24-	=24-	=24-	=24-
*	*	*col	*	*	*
!LO:LB:g=original	!	!	!	!	!
0E-X	vi-	0G,<	-rant	1g	.
*	*	*Xcol	*	*	*
.	.	.	.	1d	-bant
!LO:TX:t=P:problem:kreska pseudotaktowa	!	!LO:TX:t=P:problem:kreska pseudotaktowa	!	!	!
1E-	-de-	1G	ma-	2g\	i-
!	!	!	!	!LO:TX:t=P:problem:kreska pseudotaktowa	!
.	.	.	.	2g\	-bant
=25-	=25-	=25-	=25-	=25-	=25-
0D	-rant	0A,<	-gi	1f	Ma-
.	.	.	.	1f	-gi
*	*ij	*	*	*	*
!LO:TX:t=P:problem:kreska pseudotaktowa	!	!LO:TX:t=P:problem:kreska pseudotaktowa	!	!LO:TX:t=P:problem:kreska pseudotaktowa	!
1D	vi-	1B-	quam	1f	qua(m)
=26-	=26-	=26-	=26-	=26-	=26-
*	*	*col	*	*	*
0C	-de-	0B-	vi-	0e-X	vi-
*	*	*Xcol	*	*	*
!LO:TX:t=P:problem:kreska pseudotaktowa	!	!	!	!LO:TX:t=P:problem:kreska pseudotaktowa	!
1C	-rant	1A	-de-	1e-	-de-
*	*Xij	*	*	*	*
=27-	=27-	=27-	=27-	=27-	=27-
!	!	!LO:LB:g=original	!	!LO:TX:t=P:problem:kreska pseudotaktowa	!
1.BB-	stel-	0B-	-rant	0.d	-rant
2BB-/	-lam	.	.	.	.
!	!	!LO:TX:t=P:problem:kreska pseudotaktowa	!	!	!
2D/	.	1r	.	.	.
!LO:TX:t=P:problem:kreska pseudotaktowa	!	!	!	!	!
!LO:TX:t=P:problem:LO:SIC:v:s=2E-?	!	!	!	!	!
2Eny/	se-	.	.	.	.
=28-	=28-	=28-	=28-	=28-	=28-
!LO:TX:t=P:problem:kreska pseudotaktowa	!	!	!	!LO:PB:g=original	!
0.F	-quen-	1r	.	1r	.
.	.	1F	Stel-	1A	stel-
.	.	2A\	-lam	2c\	-lam
!	!	!LO:TX:t=P:problem:kreska pseudotaktowa	!	!	!
.	.	2B-\	se-	2d\	se-
=29-	=29-	=29-	=29-	=29-	=29-
!	!	!LO:TX:t=P:problem:kreska pseudotaktowa	!	!LO:TX:t=P:problem:kreska pseudotaktowa	!
1.C	-tes	0.c	-quen-	0.e-X	-quen-
*	*ij	*	*	*	*
2C/	stel-	.	.	.	.
2E-X\	-lam	.	.	.	.
!LO:TX:t=P:problem:kreska pseudotaktowa	!	!	!	!	!
2F\	se-	.	.	.	.
=30-	=30-	=30-	=30-	=30-	=30-
!LO:TX:t=P:problem:kreska pseudotaktowa	!	!	!	!	!
0.G	-quen-	1.B-,<	-tes	1.d	-tes
*	*	*	*	*	*ij
.	.	2G/	Stel-	2B-/	stel-
.	.	2B-\	-la(m)	2d\	-lam
!	!	!LO:TX:t=P:problem:kreska pseudotaktowa	!	!LO:TX:t=P:problem:kreska pseudotaktowa	!
.	.	2c\	se-	2eny\	se-
=31-	=31-	=31-	=31-	=31-	=31-
1.F	-tes	0.d	-quen-	0.f	-quen-
*	*Xij	*	*	*	*
2F\	stel-	.	.	.	.
2F\	-l(am)	.	.	.	.
!LO:SIC:v:t=custos A	!	!	!	!	!
!LO:TX:t=P:problem:kreska pseudotaktowa	!	!	!	!	!
2G\	se-	.	.	.	.
=32-	=32-	=32-	=32-	=32-	=32-
!LO:LB:g=original	!	!	!	!	!
1.A	-quen-	1.c#X,	-tes	1.e	-tes
*	*	*	*	*	*Xij
4G\	.	2d\	se-	2f\	se-
4F\	.	.	.	.	.
!LO:TX:t=P:problem:kreska pseudotaktowa	!	!LO:TX:t=P:problem:kreska pseudotaktowa	!	!LO:TX:t=P:problem:kreska pseudotaktowa	!
1Eny	.	1e	-quen-	1g	-quen-
=33-	=33-	=33-	=33-	=33-	=33-
1F	-tes	1d	-tes	1f	-tes
1.A	prae-	1.d	prae-	1.e	prae-
!LO:TX:t=P:problem:kreska pseudotaktowa	!	!	!	!	!
2A\	-vi-	2c#X\	-vi-	2d\	-vi-
=34-	=34-	=34-	=34-	=34-	=34-
*	*	*col	*	*	*
!LO:TX:t=P:problem:kreska pseudotaktowa	!	!	!	!LO:TX:t=P:problem:kreska pseudotaktowa	!
0.D	-am	0.d	-am	0.d	-am
*	*	*Xcol	*	*	*
=35-	=35-	=35-	=35-	=35-	=35-
!	!	!LO:LB:g=original	!	!	!
1D	lu-	1d	lu-	0.r	.
2E\	-men	2G/	-men	.	.
2G\	re-	2B-/	re-	.	.
!	!	!LO:TX:t=P:problem:kreska pseudotaktowa	!	!	!
(2.G\	-qui-	1A	-qui-	.	.
!LO:TX:t=P:problem:kreska pseudotaktowa	!	!	!	!	!
4F#X\)	.	.	.	.	.
=36-	=36-	=36-	=36-	=36-	=36-
2G\	-runt	2G,/	-ru(n)t	1g	lu-
*	*	*	*ij	*	*
2G\	re-	2G/	re-	.	.
2Fny\	-qui-	2A\	-qui-	2c\	-men
2C/	-ru(n)t	2cny,\	-ru(n)t	2e-X\	re-
*	*	*	*Xij	*	*
!	!	!	!	!LO:SIC:v:t=custos c	!
!	!	!	!	!LO:TX:t=P:problem:kreska pseudotaktowa	!
2.G\	lu-	2.c\	lu-	1d	-qui-
!LO:TX:t=P:problem:kreska pseudotaktowa	!	!LO:TX:t=P:problem:kreska pseudotaktowa	!	!	!
4GG/	-mi-	4B-\	-mi-	.	.
=37-	=37-	=37-	=37-	=37-	=37-
!	!	!	!	!LO:LB:g=original	!
2C/	-ne	2c\	-ne	2c\	-runt
!	!	!	!	!LO:N:acc=#	!
2C/	re-	2c\	re-	2enX\	re-
2BB-/	-qui-	2d\	-qui-	2f\	-qui-
2AA/	-ru(n)t	2f\	-ru(n)t	2a\	-runt
2.C/	lu-	2.f\	lu-	2.g\	lu-
!	!	!LO:TX:t=P:problem:kreska pseudotaktowa	!	!LO:TX:t=P:problem:kreska pseudotaktowa	!
4C/	-mi-	4e\	-mi-	4f\	-mi-
=38-	=38-	=38-	=38-	=38-	=38-
!LO:LB:g=original	!	!	!	!	!
2FF/	-ne	2f,\	-ne	2f\	-ne
*	*ij	*	*	*	*
2F\	re-	2A\	lu-	2a\	lu-
2G\	-qui-	2B-\	-men	2d\	-m(in)e
2E\	-ru(n)t	2d\	re-	2f\	re-
!	!	!	!	!LO:TX:t=P:problem:kreska pseudotaktowa	!
2.A\	lu-	2.d\	-qui-	1eny	-qui-
!LO:TX:t=P:problem:kreska pseudotaktowa	!	!LO:TX:t=P:problem:kreska pseudotaktowa	!	!	!
4AA/	-mi-	4c#X\	.	.	.
=39-	=39-	=39-	=39-	=39-	=39-
2D/	-ne	2d,\	-ru(n)t	2d\	-runt
*	*	*	*ij	*	*
2D/	re-	2d\	re-	2d\	re-
!	!	!LO:LB:g=original	!	!	!
2C/	-qui-	2G/	-qui-	2e\	-qui-
2BB-/	-ru(n)t	2B-,/	-ru(n)t	2g\	-runt
*	*	*	*Xij	*	*
2.D/	lu-	2.A/	lu-	2.g\	lu-
!LO:TX:t=P:problem:kreska pseudotaktowa	!	!LO:TX:t=P:problem:kreska pseudotaktowa	!	!LO:TX:t=P:problem:kreska pseudotaktowa	!
4D/	-mi-	4G/	-mi-	4f#X\	-mi-
=40-	=40-	=40-	=40-	=40-	=40-
!	!	!LO:TX:t=P:problem:col?	!	!	!
!LO:TX:t=P:problem:kreska pseudotaktowa	!	!LO:TX:t=P:problem:kreska pseudotaktowa	!	!LO:TX:t=P:problem:kreska pseudotaktowa	!
0.GG	-ne	0.G	-ne	0.g	-ne
*	*Xij	*	*	*	*
=41-	=41-	=41-	=41-	=41-	=41-
!LO:N:acc=#	!	!LO:TX:a:t=1.	!	!	!
1BBn	De-	0.r	.	1g	De-
1BB	-um	.	.	1g	-u(m)
!LO:TX:t=P:problem:kreska pseudotaktowa	!	!	!	!LO:TX:t=P:problem:kreska pseudotaktowa	!
1BB	fa-	.	.	1fny	fa-
=42-	=42-	=42-	=42-	=42-	=42-
0C	-ten-	1cny	De-	0e	-ten-
.	.	1c	-um	.	.
!LO:TX:t=P:problem:kreska pseudotaktowa	!	!LO:TX:t=P:problem:kreska pseudotaktowa	!	!LO:TX:t=P:problem:kreska pseudotaktowa	!
1C	-t(ur)	1B-	fa-	1e	-tur
=43-	=43-	=43-	=43-	=43-	=43-
*	*ij	*	*	*	*
!	!	!LO:TX:t=P:problem:col?	!	!	!
1C#X	De-	0A	-ten-	1a	De-
1C#	-um	.	.	1a	-u(m)
!LO:TX:t=P:problem:kreska pseudotaktowa	!	!LO:TX:t=P:problem:kreska pseudotaktowa	!	!LO:SIC:v:t=custos f	!
!	!	!	!	!LO:TX:t=P:problem:kreska pseudotaktowa	!
1C#	fa-	1A	-tur	1g	fa-
=44-	=44-	=44-	=44-	=44-	=44-
*	*	*	*ij	*	*
!	!	!	!	!LO:LB:g=original	!
0D	-ten-	1d	De-	0f#X	-ten-
.	.	1d	-um	.	.
!LO:SIC:v:t=custos E-	!	!LO:TX:t=P:problem:kreska pseudotaktowa	!	!LO:TX:t=P:problem:kreska pseudotaktowa	!
1D	-t(ur)	1c	fa-	1f#	-tur
=45-	=45-	=45-	=45-	=45-	=45-
!LO:LB:g=original	!	!	!	!	!
1E-X	De-	1B-	-ten-	1g	De-
1E-	-um	1B-,	-tur	1g	-um
*	*	*	*Xij	*	*
!LO:TX:t=P:problem:kreska pseudotaktowa	!	!LO:TX:t=P:problem:kreska pseudotaktowa	!	!LO:TX:t=P:problem:kreska pseudotaktowa	!
!LO:N:acc=#	!	!	!	!LO:N:acc=-	!
1BBn	fa-	1d	fa-	1fnX	fa-
=46-	=46-	=46-	=46-	=46-	=46-
1Cny	-ten-	1.c	-ten-	1.e-X	-ten-
1C	-t(ur)	.	.	.	.
*	*Xij	*	*	*	*
.	.	2B-\	.	2d\	.
!LO:TX:t=P:problem:kreska pseudotaktowa	!	!	!	!	!
1C	fa-	2A/	.	2c/	.
!	!	!LO:TX:t=P:problem:kreska pseudotaktowa	!	!LO:TX:t=P:problem:kreska pseudotaktowa	!
.	.	2G/	.	2B-/	.
=47-	=47-	=47-	=47-	=47-	=47-
!	!	!LO:LB:g=original	!	!	!
0D	-ten-	0F#X	.	0A	.
!LO:TX:t=P:problem:kreska pseudotaktowa	!	!LO:TX:t=P:problem:kreska pseudotaktowa	!	!LO:TX:t=P:problem:kreska pseudotaktowa	!
1C	-tur	1G	-tur	1c	-tur
=48-	=48-	=48-	=48-	=48-	=48-
0D	mu-	0G	lu-	1B-	mu-
.	.	.	.	1.A	.
1D	-ne-	1F#X	-mi-	.	.
.	.	.	.	2G/	-ne-
=49-	=49-	=49-	=49-	=49-	=49-
!LO:TX:t=P:problem:kreska pseudotaktowa	!	!LO:TX:t=P:problem:kreska pseudotaktowa	!	!LO:TX:t=P:problem:kreska pseudotaktowa	!
0.GG;	-re	0.G	-ne.	0.G;	-re
=50||-	=50||-	=50||-	=50||-	=50||-	=50||-
!	!	!LO:LB:g=original	!	!	!
1G	La-	1B-	La-	1d	La-
1G	-va-	1B-	-va-	1d	-va-
!LO:TX:t=P:problem:kreska pseudotaktowa	!	!LO:TX:t=P:problem:kreska pseudotaktowa	!	!LO:TX:t=P:problem:kreska pseudotaktowa	!
1D	-cra	1Fny	-cra	1fny	-cra
=51-	=51-	=51-	=51-	=51-	=51-
*	*	*lig	*	*	*
0E-X	pu-	1G	pu-	0e-X	pu-
.	.	1A	.	.	.
*	*	*Xlig	*	*	*
!LO:TX:t=P:problem:kreska pseudotaktowa	!	!LO:TX:t=P:problem:kreska pseudotaktowa	!	!LO:TX:t=P:problem:kreska pseudotaktowa	!
1BB-	-ri	1B-	-ri	1d	-ri
=52-	=52-	=52-	=52-	=52-	=52-
1.F	gur-	1.A	gur-	1.c	gur-
2F\	-gi-	2A\	-gi-	2c/	-gi-
!LO:SIC:v:t=custos D	!	!	!	!	!
!LO:TX:t=P:problem:kreska pseudotaktowa	!	!LO:TX:t=P:problem:kreska pseudotaktowa	!	!LO:TX:t=P:problem:kreska pseudotaktowa	!
1F	-tis	1A	-tis	1c	-tis
=53-	=53-	=53-	=53-	=53-	=53-
!LO:PB:g=original	!	!	!	!	!
1D	cae-	1B-	cae-	1f	cae-
2E-X\	-le-	2G/	-le-	1.e-X	-les-
2D\	.	2F/	.	.	.
2E-\	.	2G/	.	.	.
!LO:TX:t=P:problem:kreska pseudotaktowa	!	!LO:TX:t=P:problem:kreska pseudotaktowa	!	!LO:SIC:v:t=custos d	!
2F\	.	2A/	.	2e-\	-tis
=54-	=54-	=54-	=54-	=54-	=54-
!	!	!	!	!LO:LB:g=original	!
1.G	-stis	(2B-\	.	1.d	a-
.	.	2A\)	.	.	.
.	.	(2B-\	-stis	.	.
2A\	.	2c\)	.	2c/	.
!LO:TX:t=P:problem:kreska pseudotaktowa	!	!LO:TX:t=P:problem:kreska pseudotaktowa	!	!LO:TX:t=P:problem:kreska pseudotaktowa	!
1B-	ag-	1d	a-	1B-	.
=55-	=55-	=55-	=55-	=55-	=55-
1E-X	-nus	1c	-gnus	1e-X	-gnus
1.F	at-	1.c	at-	1.c	at-
!LO:TX:t=P:problem:kreska pseudotaktowa	!	!LO:TX:t=P:problem:kreska pseudotaktowa	!	!LO:TX:t=P:problem:kreska pseudotaktowa	!
2F\	-ti-	2B-\	-ti-	2c\	-ti-
=56-	=56-	=56-	=56-	=56-	=56-
0BB-	-git	0B-	-git	0d	-git
!LO:TX:t=P:problem:kreska pseudotaktowa	!	!	!	!LO:TX:t=P:problem:kreska pseudotaktowa	!
1B-	Pec-	1d	pec-	1f	pec-
=57-	=57-	=57-	=57-	=57-	=57-
!	!	!LO:LB:g=original	!	!	!
0A	-ca-	0c	-ca-	0f	-ca-
!LO:TX:t=P:problem:kreska pseudotaktowa	!	!LO:TX:t=P:problem:kreska pseudotaktowa	!	!LO:TX:t=P:problem:kreska pseudotaktowa	!
1A	-ta	1c	-ta	1f	-ta
=58-	=58-	=58-	=58-	=58-	=58-
0G	quae	0d	quae	0f	quae
!LO:TX:t=P:problem:kreska pseudotaktowa	!	!LO:TX:t=P:problem:kreska pseudotaktowa	!	!LO:TX:t=P:problem:kreska pseudotaktowa	!
1c	no(n)	1c	non	1eny	non
=59-	=59-	=59-	=59-	=59-	=59-
1.F	de-	1.c	de-	1.f	de-
2F\	-tu-	2c\	-tu-	2f\	-tu-
!LO:TX:t=P:problem:kreska pseudotaktowa	!	!LO:TX:t=P:problem:kreska pseudotaktowa	!	!LO:TX:t=P:problem:kreska pseudotaktowa	!
1F	-lit	1c	-lit	1f	-lit
=60-	=60-	=60-	=60-	=60-	=60-
1D	nos	1d	nos	1f	nos
(2E-X\	ab-	1.B-	ab-	(2g\	ab-
2F\)	.	.	.	2a\)	.
(2E-\	-lu-	.	.	(2g\	-lu-
!LO:SIC:v:t=custos C	!	!	!	!	!
!LO:TX:t=P:problem:kreska pseudotaktowa	!	!LO:TX:t=P:problem:kreska pseudotaktowa	!	!LO:TX:t=P:problem:kreska pseudotaktowa	!
2D\)	.	2B-\	-lu-	2f\)	.
=61-	=61-	=61-	=61-	=61-	=61-
!LO:LB:g=original	!	!	!	!LO:SIC:v:s=0e-	!
0C	-en-	2c\	-en-	0e	-en-
.	.	2B-\	.	.	.
.	.	2c\	.	.	.
.	.	2d\	.	.	.
!LO:TX:t=P:problem:kreska pseudotaktowa	!	!	!	!LO:TX:t=P:problem:kreska pseudotaktowa	!
!	!	!	!	!LO:SIC:v:s=1e-	!
1C	-do	2c\	.	1e	-do
!	!	!LO:TX:t=P:problem:kreska pseudotaktowa	!	!	!
.	.	2B-\	.	.	.
=62-	=62-	=62-	=62-	=62-	=62-
!	!	!	!	!LO:SIC:v:s=1e-	!
1C	nos	1A	-do	1e	nos
(2D/	ab-	1A	ab-	(2f\	ab-
2E-X/)	.	.	.	2g\)	.
(2D/	-lu-	2A/	-lu-	(2f\	-lu-
!LO:TX:t=P:problem:kreska pseudotaktowa	!	!LO:TX:t=P:problem:kreska pseudotaktowa	!	!LO:TX:t=P:problem:kreska pseudotaktowa	!
!	!	!	!	!LO:SIC:v:s=2e-\)	!
2C/)	.	2A/	-en-	2e\)	.
=63-	=63-	=63-	=63-	=63-	=63-
1BB-	-en-	2B-\	.	1d	-en-
.	.	2A\	.	.	.
1GG	-do	2B-\	.	1d	-do
.	.	2c\	.	.	.
2G\	ab-	2B-/	.	2g\	ab-
!LO:TX:t=P:problem:kreska pseudotaktowa	!	!	!	!	!
2G\	-lu-	2A/	.	2f\	-lu-
=64-	=64-	=64-	=64-	=64-	=64-
!	!	!LO:LB:g=original	!	!LO:LB:g=original	!
2C/	-en-	2G/	-do	2e\	-en-
2BB-/	.	2G/	ab-	2d\	.
2C/	.	2c\	-lu-	2e\	.
2D/	.	2G/	-en-	2f\	.
!LO:TX:t=P:problem:kreska pseudotaktowa	!	!LO:TX:t=P:problem:kreska pseudotaktowa	!	!LO:TX:t=P:problem:kreska pseudotaktowa	!
1E-X	.	1e-X	-do	1g	-do
=65-	=65-	=65-	=65-	=65-	=65-
1BB-	-do	1d	sus-	1g	sus-
1.D	suſ-	1.d	-tu-	1.g	-tu-
2D/	-tu-	2c\	.	2f#X\	.
=66-	=66-	=66-	=66-	=66-	=66-
!LO:TX:t=P:problem:kreska pseudotaktowa	!	!LO:N:acc=#	!	!	!
!	!	!LO:TX:t=P:problem:kreska pseudotaktowa	!	!LO:TX:t=P:problem:kreska pseudotaktowa	!
0.GG;	-lit	0.Bn;<	-lit	0.g;<	-lit
=67||-	=67||-	=67||-	=67||-	=67||-	=67||-
*	*	*	*	*lig	*
0G	No-	0B-y	No-	1d	No-
.	.	.	.	1e	.
*	*	*	*	*Xlig	*
!	!	!LO:TX:t=P:problem:kreska pseudotaktowa	!	!LO:TX:t=P:problem:kreska pseudotaktowa	!
1F	-vu(m)	1A	-vu(m)	1fny	-vum
=68-	=68-	=68-	=68-	=68-	=68-
1E-X	ge-	1G	ge-	1g	ge-
1G	-nus	1G	-nus	1g	-nus
!LO:TX:t=P:problem:kreska pseudotaktowa	!	!LO:TX:t=P:problem:kreska pseudotaktowa	!	!	!
1B-	po-	1F	po-	1f	po-
=69-	=69-	=69-	=69-	=69-	=69-
0B-	-ten-	0G	-ten-	0e-X	-ten-
!	!	!	!	!LO:TX:t=P:problem:kreska pseudotaktowa	!
2.A\	.	2A\	.	1e-	-ti-
!	!	!LO:TX:t=P:problem:kreska pseudotaktowa	!	!	!
.	.	2A\	-ti-	.	.
!LO:SIC:v:t=custos B	!	!	!	!	!
4A\	-ti-	.	.	.	.
=70-	=70-	=70-	=70-	=70-	=70-
!LO:LB:g=original	!	!	!	!	!
0B-	-ae	0F	-ae	0d	-ae
!LO:TX:t=P:problem:kreska pseudotaktowa	!	!LO:TX:t=P:problem:kreska pseudotaktowa	!	!LO:TX:t=P:problem:kreska pseudotaktowa	!
1B-	a-	1B-	a-	1f	a-
=71-	=71-	=71-	=71-	=71-	=71-
1.F	-quae	1.A	-quae	1.f	-quae
2E-X\	ru-	2G/	ru-	2g\	ru-
!LO:TX:t=P:problem:kreska pseudotaktowa	!	!	!	!	!
1D	-beſ-	1F	-be-	1f	-bes-
=72-	=72-	=72-	=72-	=72-	=72-
!	!	!LO:LB:g=original	!	!	!
1C	-c(un)t	1G	-ſcunt	1e-X	-cunt
1.G	hy-	1.G	hy-	1.d	hy-
!LO:TX:t=P:problem:kreska pseudotaktowa	!	!LO:TX:t=P:problem:kreska pseudotaktowa	!	!	!
2GG/	-dri-	2G/	-dri-	2d\	-dri-
=73-	=73-	=73-	=73-	=73-	=73-
!	!	!	!	!LO:TX:t=P:problem:kreska pseudotaktowa	!
0C	-ae	0G	-ae	0.eny	-ae
!LO:TX:t=P:problem:kreska pseudotaktowa	!	!LO:TX:t=P:problem:kreska pseudotaktowa	!	!	!
1C	vi-	1G	vi-	.	.
=74-	=74-	=74-	=74-	=74-	=74-
!	!	!	!	!LO:LB:g=original	!
(1.F	-num-	1.A	-num-	1r	.
.	.	.	.	1r	.
2G\)	.	2B-/	-q(uae)	.	.
!	!	!	!	!LO:TX:t=P:problem:kreska pseudotaktowa	!
(2F\	-quae	(2A/	.	1c	Vi-
!LO:TX:t=P:problem:kreska pseudotaktowa	!	!LO:TX:t=P:problem:kreska pseudotaktowa	!	!	!
2Eny\)	.	2G/)	.	.	.
=75-	=75-	=75-	=75-	=75-	=75-
1D	iuſ-	1F	iuſ-	(1.f	-num-
1D	-sa	1F	-sa	.	.
.	.	.	.	2g\)	.
*	*ij	*	*	*	*
!LO:TX:t=P:problem:kreska pseudotaktowa	!	!LO:TX:t=P:problem:kreska pseudotaktowa	!	!	!
1D	vi-	1F	vi-	(2f\	-q(uae)
!	!	!	!	!LO:TX:t=P:problem:kreska pseudotaktowa	!
.	.	.	.	2e\)	.
=76-	=76-	=76-	=76-	=76-	=76-
(1.G	-num-	1.B-	-num-	1d	.
.	.	.	.	1d	iuſ-
2A\)	.	2c\	-q(uae)	.	.
!	!	!	!	!LO:TX:t=P:problem:kreska pseudotaktowa	!
(2G\	-quae	(2B-\	.	1d	-sa
!	!	!LO:TX:t=P:problem:kreska pseudotaktowa	!	!	!
2F\)	.	2A\)	.	.	.
=77-	=77-	=77-	=77-	=77-	=77-
*	*	*	*	*	*ij
0E-X	iuſ-	0G	iuſ-	1.g	iuſ-
.	.	.	.	2g\	-sa
*	*	*	*	*	*Xij
!LO:TX:t=P:problem:kreska pseudotaktowa	!	!LO:TX:t=P:problem:kreska pseudotaktowa	!	!LO:TX:t=P:problem:kreska pseudotaktowa	!
1D	-sa	1B-	-sa	1f	.
*	*Xij	*	*	*	*
=78-	=78-	=78-	=78-	=78-	=78-
1E-X	fun-	0B-	fun-	1g	fun-
1.F	-de-	.	.	1.f	-de-
.	.	2.A\	-de	.	.
!LO:TX:t=P:problem:kreska pseudotaktowa	!	!	!	!LO:TX:t=P:problem:kreska pseudotaktowa	!
2F\	-re	.	.	2f\	-re
!	!	!LO:SIC:v:t=custos B	!	!	!
!	!	!LO:TX:t=P:problem:kreska pseudotaktowa	!	!	!
.	.	4B-\	.	.	.
=79-	=79-	=79-	=79-	=79-	=79-
!	!	!LO:TX:a:t=Problem&colon; brak części utworu	!	!	!
!	!	!LO:PB:g=original	!	!	!
0BB-	mu-	0.ryy	.	2f\	mu-
.	.	.	.	2f\	-ta-
.	.	.	.	2d\	.
.	.	.	.	2c\	.
!LO:SIC:v:t=custos F	!	!	!	!	!
1BB-	.	.	.	2d\	.
!	!	!	!	!LO:TX:t=P:problem:kreska pseudotaktowa	!
.	.	.	.	2e\	.
=80-	=80-	=80-	=80-	=80-	=80-
!LO:LB:g=original	!	!	!	!	!
2FF/	-ta-	0.ryy	.	1f	.
2GG/	.	.	.	.	.
2AA/	.	.	.	1f	-vit
2FF/	.	.	.	.	.
!	!	!	!	!LO:TX:t=P:problem:kreska pseudotaktowa	!
2AA/	.	.	.	1f	mu-
!LO:TX:t=P:problem:kreska pseudotaktowa	!	!	!	!	!
2BB-/	.	.	.	.	.
=81-	=81-	=81-	=81-	=81-	=81-
1C	.	0.ryy	.	2e\	-ta-
.	.	.	.	2d\	.
1C	-vit	.	.	2c\	.
.	.	.	.	2d\	.
!LO:TX:t=P:problem:kreska pseudotaktowa	!	!	!	!	!
1C	mu-	.	.	2e\	.
!	!	!	!	!LO:TX:t=P:problem:kreska pseudotaktowa	!
.	.	.	.	2f\	.
=82-	=82-	=82-	=82-	=82-	=82-
!	!	!	!	!LO:LB:g=original	!
2GG/	-ta-	0.ryy	.	1g	.
2AA/	.	.	.	.	.
2BB-/	.	.	.	1g	-vit
2GG/	.	.	.	.	.
*	*	*	*	*	*ij
!	!	!	!	!LO:TX:t=P:problem:kreska pseudotaktowa	!
2BB-/	.	.	.	1g	mu-
!LO:TX:t=P:problem:kreska pseudotaktowa	!	!	!	!	!
2C/	.	.	.	.	.
=83-	=83-	=83-	=83-	=83-	=83-
0D	.	0.ryy	.	2d\	-ta-
.	.	.	.	2e\	.
.	.	.	.	2f\	.
.	.	.	.	2e\	.
!LO:TX:t=P:problem:kreska pseudotaktowa	!	!	!	!	!
1D	-vit	.	.	2f\	.
!	!	!	!	!LO:TX:t=P:problem:kreska pseudotaktowa	!
.	.	.	.	2g\	.
=84-	=84-	=84-	=84-	=84-	=84-
*	*ij	*	*	*	*
1D	mu-	0.ryy	.	1a	.
1D	-ta-	.	.	1d	-vit
*	*	*	*	*	*Xij
!LO:TX:t=P:problem:kreska pseudotaktowa	!	!	!	!LO:TX:t=P:problem:kreska pseudotaktowa	!
1C	-vit	.	.	1r	.
*	*Xij	*	*	*	*
=85-	=85-	=85-	=85-	=85-	=85-
0BB-	un-	0.ryy	.	1d	mu-
.	.	.	.	1f	-ta-
!LO:TX:t=P:problem:kreska pseudotaktowa	!	!	!	!LO:TX:t=P:problem:kreska pseudotaktowa	!
1BB-	-da	.	.	1f	-vit
=86-	=86-	=86-	=86-	=86-	=86-
*	*ij	*	*	*	*
1E-X	mu-	0.ryy	.	1g	un-
1E-	-ta-	.	.	1e-X	-da
!LO:TX:t=P:problem:kreska pseudotaktowa	!	!	!	!LO:TX:t=P:problem:kreska pseudotaktowa	!
1D	-vit	.	.	1r	.
=87-	=87-	=87-	=87-	=87-	=87-
1C	un-	0.ryy	.	1g	un-
1C	-da	.	.	1g	-da
*	*Xij	*	*	*	*
!LO:TX:t=P:problem:kreska pseudotaktowa	!	!	!	!LO:TX:t=P:problem:kreska pseudotaktowa	!
1BB-	o-	.	.	1g	o-
=88-	=88-	=88-	=88-	=88-	=88-
(<1C	-ri-	0.ryy	.	0g	-ri-
1.D)	.	.	.	.	.
.	.	.	.	1f#X	-gi-
2D/	-gi-	.	.	.	.
=89-	=89-	=89-	=89-	=89-	=89-
!LO:TX:t=P:problem:kreska pseudotaktowa	!	!	!	!LO:TX:b:t=Jesu	!
!LO:LB:g=original	!	!	!	!LO:TX:t=P:problem:kreska pseudotaktowa	!
0.GG;	-nem	0.ryy	.	0.g;<	-nem
=90-	=90-	=90-	=90-	=90-	=90-
!	!	!	!	!LO:PB:g=original	!
0G	Je-	0.ryy	.	0g	Je-
!LO:TX:t=P:problem:kreska pseudotaktowa	!	!	!	!LO:TX:t=P:problem:kreska pseudotaktowa	!
1D	-su	.	.	1f#X	-su
=91-	=91-	=91-	=91-	=91-	=91-
1.E-X	ti-	0.ryy	.	1.g	ti-
2D/	.	.	.	2fny\	-bi
!LO:TX:t=P:problem:kreska pseudotaktowa	!	!	!	!LO:TX:t=P:problem:kreska pseudotaktowa	!
1C	-bi	.	.	1e-X	sit
=92-	=92-	=92-	=92-	=92-	=92-
1BB-	sit	0.ryy	.	1g	glo-
1.D	glo-	.	.	1.g	-ri-
!LO:TX:t=P:problem:kreska pseudotaktowa	!	!	!	!LO:TX:t=P:problem:kreska pseudotaktowa	!
2D/	-ri-	.	.	2f#X\	.
=93-	=93-	=93-	=93-	=93-	=93-
0GG	-a	0.ryy	.	0g	-a
!LO:TX:t=P:problem:kreska pseudotaktowa	!	!	!	!LO:TX:t=P:problem:kreska pseudotaktowa	!
1D	qui	.	.	1fny	qui
=94-	=94-	=94-	=94-	=94-	=94-
1.G	ap-	0.ryy	.	1.d	ap-
2G\	-pa-	.	.	2eny\	-pa-
!LO:TX:t=P:problem:kreska pseudotaktowa	!	!	!	!LO:TX:t=P:problem:kreska pseudotaktowa	!
1F	-ru-	.	.	1f	-ru-
=95-	=95-	=95-	=95-	=95-	=95-
1.BB-	-i-	0.ryy	.	1.f	-i-
2C/	.	.	.	2e\	.
!LO:TX:t=P:problem:kreska pseudotaktowa	!	!	!	!LO:TX:t=P:problem:kreska pseudotaktowa	!
1D	.	.	.	1d	.
=96-	=96-	=96-	=96-	=96-	=96-
1E-X	-sti	0.ryy	.	1g	-sti
1.F	gen-	.	.	1.f	gen-
!LO:TX:t=P:problem:kreska pseudotaktowa	!	!	!	!LO:TX:t=P:problem:kreska pseudotaktowa	!
2F\	-ti-	.	.	2f\	-ti-
=97-	=97-	=97-	=97-	=97-	=97-
0BB-	-b(us)	0.ryy	.	0f	-bus
!LO:TX:t=P:problem:kreska pseudotaktowa	!	!	!	!LO:SIC:v:t=custos e	!
!	!	!	!	!LO:TX:t=P:problem:kreska pseudotaktowa	!
1GG	cum	.	.	1g	cum
=98-	=98-	=98-	=98-	=98-	=98-
!	!	!	!	!LO:LB:g=original	!
1AA	Pa-	0.ryy	.	1e	Pa-
1AA	-tre	.	.	1e	-tre
!LO:SIC:v:t=custos GG	!	!	!	!LO:TX:t=P:problem:kreska pseudotaktowa	!
1FF#X	et	.	.	1a	et
=99-	=99-	=99-	=99-	=99-	=99-
!LO:LB:g=original	!	!	!	!	!
1GG	al-	0.ryy	.	1d	al-
2G\	.	.	.	2e\	.
2F\	.	.	.	2f\	.
!LO:TX:t=P:problem:kreska pseudotaktowa	!	!	!	!LO:TX:t=P:problem:kreska pseudotaktowa	!
!LO:N:acc=#	!	!	!	!	!
1EnX	-mo	.	.	1g	.
=100-	=100-	=100-	=100-	=100-	=100-
1F	Spi-	0.ryy	.	1f	-mo
1.A	.	.	.	1.e	Spi-
!LO:TX:t=P:problem:kreska pseudotaktowa	!	!	!	!LO:TX:t=P:problem:kreska pseudotaktowa	!
2AA/	-ri-	.	.	2e\	-ri-
=101-	=101-	=101-	=101-	=101-	=101-
!LO:TX:t=P:problem:kreska pseudotaktowa	!	!	!	!	!
0.D	-tu	0.ryy	.	2f\	-tu
.	.	.	.	(4f\	in
.	.	.	.	4g\)	.
.	.	.	.	(2a\	Sem-
.	.	.	.	2f\)	.
.	.	.	.	(2g\	-pi-
!	!	!	!	!LO:TX:t=P:problem:kreska pseudotaktowa	!
.	.	.	.	2a\)	.
=102-	=102-	=102-	=102-	=102-	=102-
(2GG/	in	0.ryy	.	0g	-ter-
2AA/)	.	.	.	.	.
(2BB-/	Sem-	.	.	.	.
2GG/)	.	.	.	.	.
!	!	!	!	!LO:TX:t=P:problem:kreska pseudotaktowa	!
(2AA/	-pi-	.	.	1g	-na
2BB-/)	.	.	.	.	.
=103-	=103-	=103-	=103-	=103-	=103-
0C	-ter-	0.ryy	.	(2e\	in
.	.	.	.	2f\)	.
.	.	.	.	(2g\	Sem-
.	.	.	.	2e\)	.
!LO:TX:t=P:problem:kreska pseudotaktowa	!	!	!	!	!
1C	-na	.	.	(2f\	-pi-
!	!	!	!	!LO:SIC:v:t=custos a	!
!	!	!	!	!LO:TX:t=P:problem:kreska pseudotaktowa	!
.	.	.	.	2g\)	.
=104-	=104-	=104-	=104-	=104-	=104-
*	*ij	*	*	*	*
!	!	!	!	!LO:LB:g=original	!
(2FFny/	in	0.ryy	.	1a	-ter-
2GG/)	.	.	.	.	.
(2AA/	Sem-	.	.	1a	-na
2FF/)	.	.	.	.	.
!	!	!	!	!LO:TX:t=P:problem:kreska pseudotaktowa	!
(2GG/	-pi-	.	.	1a	.
!LO:TX:t=P:problem:kreska pseudotaktowa	!	!	!	!	!
2AA/)	.	.	.	.	.
=105-	=105-	=105-	=105-	=105-	=105-
*	*	*	*	*	*ij
0BB-	-ter-	0.ryy	.	2d\	in
.	.	.	.	2e\	.
.	.	.	.	2f\	Sem-
.	.	.	.	2d\	.
1BB-	-na	.	.	(2e\	-pi-
*	*Xij	*	*	*	*
!	!	!	!	!LO:TX:t=P:problem:kreska pseudotaktowa	!
.	.	.	.	2f\)	.
=106-	=106-	=106-	=106-	=106-	=106-
!	!	!	!	!	!
1E-X	in	0.ryy	.	1g	-ter-
1E-	sem-	.	.	1g	-na
*	*	*	*	*	*Xij
!LO:SIC:v:t=custos C	!	!	!	!	!
!LO:TX:t=P:problem:kreska pseudotaktowa	!	!	!	!	!
1D	-pi-	.	.	2f\	Sem-
!	!	!	!	!LO:TX:t=P:problem:kreska pseudotaktowa	!
.	.	.	.	2f\	-pi-
=107-	=107-	=107-	=107-	=107-	=107-
!LO:LB:g=original	!	!	!	!	!
1.C	-ter-	0.ryy	.	2e\	-ter-
.	.	.	.	2d\	.
.	.	.	.	2e\	.
2D\	.	.	.	2f\	.
2E-X\	.	.	.	2g\	.
!LO:TX:t=P:problem:kreska pseudotaktowa	!	!	!	!LO:TX:t=P:problem:kreska pseudotaktowa	!
2F\	.	.	.	2a\	.
=108-	=108-	=108-	=108-	=108-	=108-
2G\	.	0.ryy	.	2b-\	-na
2GG/	-na	.	.	2g\	.
1.D	Sae-	.	.	1.g	Sae-
!LO:TX:t=P:problem:kreska pseudotaktowa	!	!	!	!	!
2D/	-cu-	.	.	2f#X\	-cu-
=109-	=109-	=109-	=109-	=109-	=109-
!LO:TX:t=P:problem:kreska pseudotaktowa	!	!	!	!LO:TX:t=P:problem:kreska pseudotaktowa	!
0.GG;	-la	0.ryy	.	0.g;<	-la
=110-	=110-	=110-	=110-	=110-	=110-
2.G\	A-	0.ryy	.	0.r	.
4A\	.	.	.	.	.
2B-\	.	.	.	.	.
2G\	.	.	.	.	.
2F\	.	.	.	.	.
!LO:TX:t=P:problem:kreska pseudotaktowa	!	!	!	!	!
2Eny\	.	.	.	.	.
=111-	=111-	=111-	=111-	=111-	=111-
!	!	!LO:TX:a:t=P:problem:początek Amen niewidoczny	!	!	!
!	!	!	!	!LO:LB:g=original	!
0D	.	2.F/	A-	2.d\	A-
.	.	4G/	.	4e\	.
.	.	1A	.	2fny\	.
.	.	.	.	2d\	.
!LO:TX:t=P:problem:kreska pseudotaktowa	!	!LO:TX:t=P:problem:kreska pseudotaktowa	!	!	!
1D	-men	1F	.	2f\	.
.	.	.	.	4g\	.
!	!	!	!	!LO:TX:t=P:problem:kreska pseudotaktowa	!
.	.	.	.	4a\	.
=112-	=112-	=112-	=112-	=112-	=112-
*	*ij	*	*	*	*
2.BB-/	A-	0ryy	.	1.b-	.
4C/	.	.	.	.	.
2D/	.	.	.	.	.
2BB-/	.	.	.	4a\	.
.	.	.	.	4g\	.
2D/	.	2d\yy	.	2f\	.
!LO:TX:t=P:problem:kreska pseudotaktowa	!	!LO:TX:t=P:problem:kreska pseudotaktowa	!	!LO:TX:t=P:problem:kreska pseudotaktowa	!
2E/	.	2c\yy	.	2g\	.
=113-	=113-	=113-	=113-	=113-	=113-
0F	.	2.A\	.	2.a\	.
.	.	4B-\	.	4g\	.
.	.	2c\	.	2f\	.
.	.	2A\	.	2a\	.
!LO:SIC:v:t=custos C	!	!	!	!	!
!LO:TX:t=P:problem:kreska pseudotaktowa	!	!	!	!	!
1F	-men	2c\	.	2g\	.
!	!	!LO:TX:t=P:problem:kreska pseudotaktowa	!	!LO:TX:t=P:problem:kreska pseudotaktowa	!
.	.	2ryy	.	2f\	.
=114-	=114-	=114-	=114-	=114-	=114-
!LO:PB:g=original	!	!	!	!	!
!	!	!	!	!LO:SIC:v:s=2.e-\	!
2.C/	A-	1.ryy	.	2.e\	.
4D/	.	.	.	4f\	.
2E-X/	.	.	.	2g\	.
!	!	!	!	!LO:SIC:v:s=2.e-\	!
2C/	.	2ryy	.	2e\	.
!	!	!LO:TX:t=P:problem:kreska pseudotaktowa	!	!	!
2E-/	.	1ryy	.	2g\	.
!LO:TX:t=P:problem:kreska pseudotaktowa	!	!	!	!LO:TX:t=P:problem:kreska pseudotaktowa	!
2F/	.	.	.	2a\	.
=115-	=115-	=115-	=115-	=115-	=115-
0G	.	0B-	.	2.b-\	.
.	.	.	.	4a\	.
.	.	.	.	2g\	.
.	.	.	.	2b-\	.
!LO:TX:t=P:problem:kreska pseudotaktowa	!	!	!	!	!
1G	-men	1B-	-men	2a\	.
*	*Xij	*	*	*	*
!	!	!	!	!LO:TX:t=P:problem:kreska pseudotaktowa	!
.	.	.	.	2g\	.
=116-	=116-	=116-	=116-	=116-	=116-
!	!	!	!	!LO:LB:g=original	!
0D	A-	2.F/	A-	2f\	.
.	.	.	.	2e\	.
.	.	4G/	.	.	.
.	.	2A/	.	2f\	.
.	.	2D/	.	2g\	.
!LO:TX:t=P:problem:kreska pseudotaktowa	!	!	!	!LO:TX:t=P:problem:kreska pseudotaktowa	!
1D	-men	2A\	.	1a	.
!	!	!LO:SIC:v:t=custos c	!	!	!
.	.	2B-\	.	.	.
=117-	=117-	=117-	=117-	=117-	=117-
*	*ij	*	*	*	*
!	!	!LO:LB:g=original	!	!	!
1E-X	A-	2c\	.	1g	-men
.	.	2B-\	.	.	.
!LO:TX:t=P:problem:kreska pseudotaktowa	!	!	!	!LO:TX:t=P:problem:kreska pseudotaktowa	!
0F	.	1.B-	.	0f	A-
!	!	!LO:TX:t=P:problem:kreska pseudotaktowa	!	!	!
.	.	2A\	.	.	.
=118-	=118-	=118-	=118-	=118-	=118-
!LO:TX:t=P:problem:kreska pseudotaktowa	!	!	!	!	!
0.BB-	-men	0.B-	-men	2d\	-men
*	*Xij	*	*	*	*
.	.	.	.	4d\	a-
.	.	.	.	4e\	.
.	.	.	.	2f\	.
.	.	.	.	2d\	.
.	.	.	.	2c/	.
!	!	!	!	!LO:TX:t=P:problem:kreska pseudotaktowa	!
.	.	.	.	2B-/	.
=119-	=119-	=119-	=119-	=119-	=119-
2.F\	A-	2.A\	A-	0c	-men
4G\	.	4B-\	.	.	.
2A\	.	2c\	.	.	.
2F\	.	2A/	.	.	.
*	*	*	*	*	*ij
!	!	!	!	!LO:TX:t=P:problem:kreska pseudotaktowa	!
2Eny\	.	2G/	.	1c	a-
!LO:TX:t=P:problem:kreska pseudotaktowa	!	!LO:TX:t=P:problem:kreska pseudotaktowa	!	!	!
2D\	.	2F/	.	.	.
=120-	=120-	=120-	=120-	=120-	=120-
0C	.	0G	.	2.e\	.
.	.	.	.	4f\	.
.	.	.	.	2g\	.
.	.	.	.	2e\	.
!	!	!LO:TX:t=P:problem:kreska pseudotaktowa	!	!	!
1C	-men	1G	-men	2d\	.
!	!	!	!	!LO:TX:t=P:problem:kreska pseudotaktowa	!
.	.	.	.	2c\	.
=121-	=121-	=121-	=121-	=121-	=121-
*	*	*	*ij	*	*
2.G\	A-	2.B-\	A-	0d	.
4A\	.	4c\	.	.	.
2B-\	.	2d\	.	.	.
2G\	.	2B-\	.	.	.
!	!	!	!	!LO:TX:t=P:problem:kreska pseudotaktowa	!
2F\	.	2A/	.	1d	-men
*	*	*	*	*	*Xij
!	!	!LO:TX:t=P:problem:kreska pseudotaktowa	!	!	!
2E-X\	.	2G/	.	.	.
=122-	=122-	=122-	=122-	=122-	=122-
!LO:TX:t=P:problem:kreska pseudotaktowa	!	!	!	!	!
!LO:LB:g=original	!	!	!	!	!
0.D	.	0A	.	2.d\	A-
.	.	.	.	4e\	.
.	.	.	.	2f\	.
.	.	.	.	2d\	.
!	!	!LO:TX:t=P:problem:kreska pseudotaktowa	!	!	!
.	.	1G	-men	2f\	.
*	*	*	*Xij	*	*
!	!	!	!	!LO:SIC:v:t=custos a	!
!	!	!	!	!LO:TX:t=P:problem:kreska pseudotaktowa	!
.	.	.	.	2g\	.
=123-	=123-	=123-	=123-	=123-	=123-
!	!	!	!	!LO:LB:g=original	!
0.D	.	0F#X	A-	0a	.
!	!	!	!	!LO:TX:t=P:problem:kreska pseudotaktowa	!
.	.	2B-\	.	1g	-men
!	!	!LO:SIC:v:t=custos d	!	!	!
!	!	!LO:TX:t=P:problem:kreska pseudotaktowa	!	!	!
.	.	2c\	.	.	.
=124-	=124-	=124-	=124-	=124-	=124-
*	*	*	*	*	*ij
!LO:TX:t=P:problem:kreska pseudotaktowa	!	!	!	!	!
0.D	.	1d	-men	1g	A-
*	*	*	*ij	*	*
.	.	0d	A-	2f#X\	.
.	.	.	.	2e\	.
!	!	!	!	!LO:TX:t=P:problem:kreska pseudotaktowa	!
.	.	.	.	1f#X	.
=125-	=125-	=125-	=125-	=125-	=125-
*lig	*	*lig	*	*lig	*
0.GG;;	-men	0.d;;	-men	0.g;;	-men
*	*	*	*Xij	*	*Xij
=126-	=126-	=126-	=126-	=126-	=126-
!LO:TX:t=P:problem:kreska pseudotaktowa	!	!	!	!	!
0.GG	.	0.d	.	0.g	.
*Xlig	*	*Xlig	*	*Xlig	*
=-	=-	=-	=-	=-	=-
*-	*-	*-	*-	*-	*-
!!!system-decoration: [(s1,s2,s3)]
!!!RDF**kern: < = below
!!!RDF**kern: > = above
!!!AIN: 1 alto 1 bass 1 tenor
!!!ENC: Marta Chmielewska
!!!END: 2021-07-08
!!!ENC: Berenika Jozajtis
!!!END: 2021-06-28
